default/Home.svg

<svg style="fill: currentColor;" width="24" height="24" fill="none" xmlns="http://www.w3.org/2000/svg">
<path d="m16 9.414-4.5-4.5L4.414 12H6v8h11v-8h1.586L17 10.414l-1-1zM2 13l9.5-9.5L15 7l3 3 3 3h-3v7.998h-5V21l-3-.002H5V13H2z"/>
</svg>

<svg width="24" height="24" viewBox="0 0 24 24" fill="none" xmlns="http://www.w3.org/2000/svg">
<path d="M16 9.414L11.5 4.914L4.414 12H6V20H9H14H17V12H18.586L17 10.414L16 9.414ZM2 13L11.5 3.5L15 7L18 10L21 13H18V20.998H13V21L10 20.998H5V13H2Z" fill="none"/>
</svg>
